applications/plugins/org.csstudio.opibuilder.imagelib/SymbolLibrary/SVG/Fluid/Valves_with_Actuators/VC 3 way-Valves On-Off Control Valve On.svg

<?xml version="1.0" encoding="UTF-8" standalone="no"?>
<!-- Généré par Microsoft Visio 11.0, SVG Export, v1.0 FL_EF010401.svg Page 1 -->

<!--
/*******************************************************************************
* Copyright (c) 2010-2014 ITER Organization.
* All rights reserved. This program and the accompanying materials
* are made available under the terms of the Eclipse Public License v1.0
* which accompanies this distribution, and is available at
* http://www.eclipse.org/legal/epl-v10.html
******************************************************************************/
-->
<svg
   xmlns:v="http://schemas.microsoft.com/visio/2003/SVGExtensions/"
   xmlns:dc="http://purl.org/dc/elements/1.1/"
   xmlns:cc="http://creativecommons.org/ns#"
   xmlns:rdf="http://www.w3.org/1999/02/22-rdf-syntax-ns#"
   xmlns:svg="http://www.w3.org/2000/svg"
   xmlns="http://www.w3.org/2000/svg"
   xmlns:sodipodi="http://sodipodi.sourceforge.net/DTD/sodipodi-0.dtd"
   xmlns:inkscape="http://www.inkscape.org/namespaces/inkscape"
   width="22"
   height="46"
   viewBox="0 0 17.599979 36.799957"
   xml:space="preserve"
   color-interpolation-filters="sRGB"
   class="st2"
   id="svg2"
   version="1.1"
   inkscape:version="0.48.2 r9819"
   sodipodi:docname="FL_EF07DC_CODAC.svg"
   style="font-size:12px;fill:none;stroke-linecap:square;stroke-miterlimit:3;overflow:visible"><metadata
   id="metadata35"><rdf:RDF><cc:Work
       rdf:about=""><dc:format>image/svg+xml</dc:format><dc:type
         rdf:resource="http://purl.org/dc/dcmitype/StillImage" /><dc:title /></cc:Work></rdf:RDF></metadata><defs
   id="defs33">
		
		<v:pageProperties
   v:shadowOffsetY="-8.50394"
   v:shadowOffsetX="8.50394"
   v:drawingUnits="24"
   v:pageScale="0.0393701"
   v:drawingScale="0.0393701" />
		
		
	
			
			
		
			
			
			
		
				
				
			
				
				
			
				
				
			</defs><sodipodi:namedview
   pagecolor="#ffffff"
   bordercolor="#666666"
   borderopacity="1"
   objecttolerance="10"
   gridtolerance="10"
   guidetolerance="10"
   inkscape:pageopacity="0"
   inkscape:pageshadow="2"
   inkscape:window-width="1280"
   inkscape:window-height="1002"
   id="namedview31"
   showgrid="true"
   inkscape:zoom="14.01018"
   inkscape:cx="9.9001919"
   inkscape:cy="19.164447"
   inkscape:window-x="1358"
   inkscape:window-y="-8"
   inkscape:window-maximized="1"
   inkscape:current-layer="svg2"
   fit-margin-top="0"
   fit-margin-left="0"
   fit-margin-right="0"
   fit-margin-bottom="0"><inkscape:grid
     type="xygrid"
     id="grid3026"
     empspacing="5"
     visible="true"
     enabled="true"
     snapvisiblegridlinesonly="true" /></sodipodi:namedview>
	<v:documentProperties
   v:langID="1036"
   v:metric="true"
   v:viewMarkup="false" />
	<style
   type="text/css"
   id="style4">
	
		.st1 {fill:#ffffff;stroke:none;stroke-linecap:round;stroke-linejoin:round;stroke-width:0.72}
		.st2 {fill:none;fill-rule:evenodd;font-size:12;overflow:visible;stroke-linecap:square;stroke-miterlimit:3}
		.st3 {fill:#ffffff;stroke:#000000;stroke-linecap:round;stroke-linejoin:round;stroke-width:0.72}
	
	</style>
	
<g
   id="g3017"><g
     id="g3009"><rect
       style="fill:#ffffff;stroke:none"
       id="rect16"
       class="st1"
       height="0.0159449"
       width="0.0159449"
       y="-0.0159449"
       x="-2.173913e-007" /><rect
       style="fill:#ffffff;stroke:none"
       id="rect21"
       class="st1"
       height="0.0159449"
       width="0.0159449"
       y="36.784016"
       x="17.599979" /><path
       style="fill:#a6a6a6;fill-opacity:1;stroke:#000000;stroke-width:0.72000003;stroke-linecap:round;stroke-linejoin:round"
       inkscape:connector-curvature="0"
       id="path29"
       class="st3"
       d="m 8.8782201,18.446194 -8.5,-4.25 0,8.5 8.5,-4.25 z m 0,0 -4.25,8.5 8.5099999,0 -4.2599999,-8.5 z m 0,0 8.5099999,4.25 0,-8.5 -8.5099999,4.25 z" /><path
       style="font-size:12px;fill:#ffffff;stroke:#000000;stroke-width:0.71999884;stroke-linecap:round;stroke-linejoin:round;stroke-miterlimit:3"
       inkscape:connector-curvature="0"
       id="path31"
       class="st3"
       d="m 8.8721801,9.5836331 8.5099859,0 a 8.5049865,8.5049865 0 1 0 -17.0099728,0 l 8.4999869,0 z" /><path
       style="font-size:12px;fill:none;stroke:#000000;stroke-width:0.71999884;stroke-linecap:round;stroke-linejoin:round;stroke-miterlimit:3"
       inkscape:connector-curvature="0"
       id="path33"
       class="st4"
       d="m 8.8721801,9.5836331 8.5099859,0 a 8.5049865,8.5049865 0 1 0 -17.0099728,0 l 8.4999869,0" /><path
       style="font-size:12px;fill:none;stroke:#000000;stroke-width:0.71999884;stroke-linecap:round;stroke-linejoin:round;stroke-miterlimit:3"
       inkscape:connector-curvature="0"
       id="path35"
       class="st4"
       d="m 8.8721801,9.5836331 0,8.4999869" /></g></g></svg>

<?xml version='1.0' encoding='UTF-8'?>
<!DOCTYPE svg PUBLIC "-//W3C//DTD SVG 1.0//EN" "C:\SeeVisioDTD\svg10.dtd">
<!--
/*******************************************************************************
* Copyright (c) 2010-2014 ITER Organization.
* All rights reserved. This program and the accompanying materials
* are made available under the terms of the Eclipse Public License v1.0
* which accompanies this distribution, and is available at
* http://www.eclipse.org/legal/epl-v10.html
******************************************************************************/
-->
<svg xmlns="http://www.w3.org/2000/svg" xmlns:xlink="http://www.w3.org/1999/xlink" width="33pt" height="69pt" viewBox="0 0 33 69" version="1.1">
<g id="surface1">
<path style="fill-rule:evenodd;fill:rgb(65.098039%,65.098039%,65.098039%);fill-opacity:1;stroke-width:0.72;stroke-linecap:round;stroke-linejoin:round;stroke:rgb(0%,0%,0%);stroke-opacity:1;stroke-miterlimit:3;" d="M 8.879156 18.445812 L 0.379166 14.195817 L 0.379166 22.695807 Z M 8.879156 18.445812 L 4.629161 26.945802 L 13.137484 26.945802 Z M 8.879156 18.445812 L 17.387479 22.695807 L 17.387479 14.195817 Z M 8.879156 18.445812 " transform="matrix(1.875002,0,0,1.875002,0.000000407609,0)"/>
<path style="fill-rule:evenodd;fill:rgb(100%,100%,100%);fill-opacity:1;stroke-width:0.719999;stroke-linecap:round;stroke-linejoin:round;stroke:rgb(0%,0%,0%);stroke-opacity:1;stroke-miterlimit:3;" d="M 8.872906 9.583322 L 17.381229 9.583322 C 17.383313 4.885411 13.574984 1.077082 8.877073 1.077082 C 4.179162 1.077082 0.370833 4.885411 0.372916 9.583322 Z M 8.872906 9.583322 " transform="matrix(1.875002,0,0,1.875002,0.000000407609,0)"/>
<path style="fill:none;stroke-width:0.719999;stroke-linecap:round;stroke-linejoin:round;stroke:rgb(0%,0%,0%);stroke-opacity:1;stroke-miterlimit:3;" d="M 8.872906 9.583322 L 17.381229 9.583322 C 17.383313 4.885411 13.574984 1.077082 8.877073 1.077082 C 4.179162 1.077082 0.370833 4.885411 0.372916 9.583322 L 8.872906 9.583322 " transform="matrix(1.875002,0,0,1.875002,0.000000407609,0)"/>
<path style="fill:none;stroke-width:0.719999;stroke-linecap:round;stroke-linejoin:round;stroke:rgb(0%,0%,0%);stroke-opacity:1;stroke-miterlimit:3;" d="M 8.872906 9.583322 L 8.872906 18.083312 " transform="matrix(1.875002,0,0,1.875002,0.000000407609,0)"/>
</g>
</svg>
